scalable-up-to-16/actions/edit-paste-symbolic.svg

<svg width="16" height="16" version="1.1" xmlns="http://www.w3.org/2000/svg">
	<path d="m4.9765 1v0.96875h-1.4726c-0.8332-0.0001-1.5039 0.6689-1.5039 1.4999v8.0313c0 0.81043 0.63685 1.468 1.4413 1.5 0.020413 0.000812 0.042039 0 0.062663 0h0.46997 1.0026v0.5c0 0.831 0.67075 1.5 1.5039 1.5h6.0157c0.833 0 1.504-0.669 1.504-1.5v-7c0-0.65788-0.41406-1.203-1.0026-1.4062v-1.625c0-0.831-0.67075-1.5-1.5039-1.5h-1.5039v-0.96875zm1.0235 1h3v1h-3zm1.483 5h4.0104c0.27772 0 0.5013 0.223 0.5013 0.5v5c0 0.277-0.22358 0.5-0.5013 0.5h-4.01c-0.2777 0-0.5013-0.223-0.5013-0.5v-5c0-0.277 0.22358-0.5 0.50131-0.5z" fill="#bebebe"/>
</svg>

<svg width="16" height="16" version="1.1" xmlns="http://www.w3.org/2000/svg">
	<path d="M 5 1 L 5 2 L 3.5 2 C 2.669 2 2 2.669 2 3.5 L 2 11.5 C 2 12.331 2.669 13 3.5 13 L 5 13 L 5 13.5 C 5 14.331 5.669 15 6.5 15 L 12.5 15 C 13.331 15 14 14.331 14 13.5 L 14 6.5 C 14 5.84576 13.58192 5.2977969 13 5.0917969 L 13 3.5 C 13 2.669 12.331 2 11.5 2 L 10 2 L 10 1 L 5 1 z M 6 2 L 9 2 L 9 3 L 6 3 L 6 2 z M 7.5 7 L 11.5 7 C 11.777 7 12 7.223 12 7.5 L 12 12.5 C 12 12.777 11.777 13 11.5 13 L 7.5 13 C 7.223 13 7 12.777 7 12.5 L 7 7.5 C 7 7.223 7.223 7 7.5 7 z " fill="#bebebe"/>
</svg>
